public/formular-icons/greece/upper-phi.svg

<svg style="vertical-align:0" xmlns="http://www.w3.org/2000/svg" width="1.633ex" height="1.545ex" viewBox="0 -683 722 683" xmlns:xlink="http://www.w3.org/1999/xlink"><defs><path id="a" d="M312 622q-2 1-5 3t-4 4-6 2-11 3-16 1-24 1-35 1h-27v46h12q24-3 165-3t165 3h12v-46h-27q-43 0-64-2t-25-4-11-9v-89l14-2q100-12 170-65t70-124q0-41-23-75t-59-58-77-37-81-20l-14-2V61q6-6 10-8t26-5 64-2h27V0h-12q-24 3-165 3T196 0h-12v46h61q14 0 25 1t16 1 11 3 6 3 4 3 5 4v89h-2q-1 1-21 3t-57 13-72 29q-11 6-24 15t-33 28-34 46-13 58q0 72 72 125t166 63q15 2 16 3h2v89ZM170 342q0-135 137-154h5v307h-3q-8 0-27-4t-51-22-45-46q-16-34-16-81Zm245-154q72 11 104 48t32 106q0 42-12 72t-32 45-37 22-36 10-19 4h-5V188h5Z"/></defs><g stroke="currentColor" fill="currentColor" stroke-width="0"><use data-c="3A6" xlink:href="#a" transform="scale(1 -1)"/></g></svg>

<svg style="vertical-align: 0" xmlns="http://www.w3.org/2000/svg" width="1.633ex" height="1.545ex" role="img" focusable="false" viewBox="0 -683 722 683" xmlns:xlink="http://www.w3.org/1999/xlink"><defs><path id="MJX-129-TEX-N-3A6" d="M312 622Q310 623 307 625T303 629T297 631T286 634T270 635T246 636T211 637H184V683H196Q220 680 361 680T526 683H538V637H511Q468 637 447 635T422 631T411 622V533L425 531Q525 519 595 466T665 342Q665 301 642 267T583 209T506 172T425 152L411 150V61Q417 55 421 53T447 48T511 46H538V0H526Q502 3 361 3T196 0H184V46H211Q231 46 245 46T270 47T286 48T297 51T303 54T307 57T312 61V150H310Q309 151 289 153T232 166T160 195Q149 201 136 210T103 238T69 284T56 342Q56 414 128 467T294 530Q309 532 310 533H312V622ZM170 342Q170 207 307 188H312V495H309Q301 495 282 491T231 469T186 423Q170 389 170 342ZM415 188Q487 199 519 236T551 342Q551 384 539 414T507 459T470 481T434 491T415 495H410V188H415Z"></path></defs><g stroke="currentColor" fill="currentColor" stroke-width="0" transform="scale(1,-1)"><g data-mml-node="math"><g data-mml-node="mi"><use data-c="3A6" xlink:href="#MJX-129-TEX-N-3A6"></use></g></g></g></svg>
